X: 1947
T: Arrane Y Ven-Thie
R: slide
M: 12/8
K: Cmajor
c2B A2G ABc E3|G2A G2E G2A G3|c3 c3 c2d c2B|A3 d3 d2c d2d|
c2c c2d eef e2d|c2A G3 c2E D3|E2G A3 G3 F3|E2G A3 G3 G3||

